local/share/icons/dracula-icons-main/symbolic/devices/phonelink-symbolic.svg

<?xml version="1.0" encoding="UTF-8"?>
<svg xmlns="http://www.w3.org/2000/svg" xmlns:xlink="http://www.w3.org/1999/xlink" width="16" height="16" viewBox="0 0 16 16">
<path fill-rule="nonzero" fill="rgb(33.333333%, 33.333333%, 33.333333%)" fill-opacity="1" d="M 4 1 C 2.339844 1 1 2.339844 1 4 L 1 5 L 3 5 L 3 4 C 3 3.445312 3.445312 3 4 3 L 12 3 C 12.554688 3 13 3.445312 13 4 L 13 10 C 13 10.554688 12.554688 11 12 11 L 9 11 L 9 13 L 12 13 C 13.660156 13 15 11.660156 15 10 L 15 4 C 15 2.339844 13.660156 1 12 1 Z M 2.28125 6 C 1.570312 6 1 6.570312 1 7.28125 L 1 14.71875 C 1 15.429688 1.570312 16 2.28125 16 L 6.71875 16 C 7.429688 16 8 15.429688 8 14.71875 L 8 7.28125 C 8 6.570312 7.429688 6 6.71875 6 Z M 2.410156 7 L 3 7 C 3 7.554688 3.445312 8 4 8 L 5 8 C 5.554688 8 6 7.554688 6 7 L 6.589844 7 C 6.816406 7 7 7.183594 7 7.410156 L 7 14.519531 C 7 14.785156 6.785156 15 6.519531 15 L 2.480469 15 C 2.214844 15 2 14.785156 2 14.519531 L 2 7.410156 C 2 7.183594 2.183594 7 2.410156 7 Z M 9 14 L 9 16 L 13 16 L 13 15 C 13 14.445312 12.554688 14 12 14 Z M 9 14 "/>
</svg>

<svg width="16" height="16" version="1.1" viewBox="0 0 16 16">
 <path d="m4 1c-1.662 0-3 1.338-3 3v1h2v-1c0-0.554 0.446-1 1-1h8c0.554 0 1 0.446 1 1v6c0 0.554-0.446 1-1 1h-3v2h3c1.662 0 3-1.338 3-3v-6c0-1.662-1.338-3-3-3zm-1.7188 5c-0.71002 0-1.2812 0.57128-1.2812 1.2812v7.4375c0 0.71002 0.57128 1.2812 1.2812 1.2812h4.4375c0.71002 0 1.2812-0.57128 1.2812-1.2812v-7.4375c0-0.71002-0.57128-1.2812-1.2812-1.2812h-2.7188zm0.12891 1h0.58984c0 0.554 0.446 1 1 1h1c0.554 0 1-0.446 1-1h0.58984c0.22771 0 0.41016 0.18245 0.41016 0.41016v7.1094c0 0.2666-0.21387 0.48047-0.48047 0.48047h-4.0391c-0.2666 0-0.48047-0.21387-0.48047-0.48047v-7.1094c0-0.22771 0.18245-0.41016 0.41016-0.41016zm6.5898 7v2h4v-1c0-0.554-0.446-1-1-1z" fill="#555555"/>
</svg>
